X:1
T:Title
%%score 1 { 2 | 3 }
L:1/8
Q:1/4=107
M:4/4
K:F
V:1 treble nm="Grand Piano, Soprano"
V:2 bass nm="Choir Pad, Anza Vista, 87.87 D"
V:3 bass 
V:1
 [Fd]2 [Fc]2- [Fc][FA][CF][FG] | [FA][_Ad] [=Ac]4 z2 | [FA]2 [FB]2 [FA]2 [FG]2 | %3
w: By~C.~Armand~Miller,~1893 * * * * *|||
 F2 [FA]2 [EG]2 z2 | [Ed]2 [Fc]2- [Fc][FA][CF][FG] | [FA][_Ad] [=Ac]4 z2 | %6
w: |||
 [FA]2 [EG]2 [Ec]2 [Fd]2 | [Ge]2 [Fd]2 [Ec]2 z2 | [GB]2 [GB]2- [GB][FA][EG][_E^F] | %9
w: |||
 [EG][EA] F4 z2 | [FA]2 [^FA]2- [FA][FA] [DB]2 | [DA]2 [DG]2 [Dd]2 z2 | %12
w: |||
 [Ed]2 [Fc]2- [Fc][FA][CF][FG] | [FA][_Ad] [=Ac]4 z2 | [FA]2 [^FA]2 [GB]2 [EG]2 | [EA]2 [EG]2 F4- | %16
w: ||||
 F4 z4 |] %17
w: |
V:2
 B,2 A,2- A,CA,B, | C=B, C4 z2 | C2 D2 C2 =B,2 | =B,2 C2 C2 z2 | B,2 A,2- A,CA,B, | C=B, C4 z2 | %6
 C2 C2 C2 =B,2 | =B,2 B,2 C2 z2 | C2 C2- CC[K:bass]B,A, | B,C A,4 z2 | C2 D2- DD D2 | %11
 C2[K:bass] B,2 B,2 z2 | B,2 A,2- A,CA,B, | C=B, C4 z2 | C2 D2 D2 B,2 | C2[K:bass] B,2 A,4- | %16
 A,4 z4 |] %17
V:3
 F,2 F,2- F,F,F,F, | F,F, F,4 z2 | F,2 F,2 F,2 D,2 | D,2 C,2 C,2 z2 | C,2 F,2- F,F,F,F, | %5
 F,F, F,4 z2 | F,2 G,2 G,2 G,2 | G,2 G,2 C,2 z2 | C,2 C,2- C,C,C,C, | C,C, F,4 z2 | %10
 F,2 D,2- D,D, ^F,2 | ^F,2 G,2 G,2 z2 | C,2 F,2- F,F,F,F, | F,F, F,4 z2 | F,2 D,2 G,,2 C,2 | %15
 C,2 C,2 F,4- | F,4 z4 |] %17

